src/pictures/icons/usersIcon.svg

<svg width="45" height="45" viewBox="0 0 45 45" fill="none" xmlns="http://www.w3.org/2000/svg">
<path d="M17.175 20.3813C16.9875 20.3625 16.7625 20.3625 16.5563 20.3813C12.0938 20.2313 8.55005 16.575 8.55005 12.075C8.55005 7.48125 12.2625 3.75 16.875 3.75C21.4688 3.75 25.2 7.48125 25.2 12.075C25.1813 16.575 21.6375 20.2313 17.175 20.3813Z" stroke="#292D32" stroke-width="3" stroke-linecap="round" stroke-linejoin="round"/>
<path d="M30.7687 7.5C34.4062 7.5 37.3311 10.4438 37.3311 14.0625C37.3311 17.6062 34.5187 20.4937 31.0124 20.625C30.8624 20.6063 30.6937 20.6063 30.5249 20.625" stroke="#292D32" stroke-width="3" stroke-linecap="round" stroke-linejoin="round"/>
<path d="M7.8001 27.3C3.2626 30.3375 3.2626 35.2875 7.8001 38.3062C12.9563 41.7562 21.4126 41.7562 26.5688 38.3062C31.1063 35.2687 31.1063 30.3188 26.5688 27.3C21.4313 23.8688 12.9751 23.8688 7.8001 27.3Z" stroke="#292D32" stroke-width="3" stroke-linecap="round" stroke-linejoin="round"/>
<path d="M34.3875 37.5C35.7375 37.2187 37.0124 36.675 38.0624 35.8687C40.9874 33.675 40.9874 30.0562 38.0624 27.8625C37.0312 27.075 35.775 26.55 34.4437 26.25" stroke="#292D32" stroke-width="3" stroke-linecap="round" stroke-linejoin="round"/>
</svg>

<svg width="45" height="45" fill="none" xmlns="http://www.w3.org/2000/svg"><path d="M17.175 20.381a3.399 3.399 0 0 0-.619 0c-4.462-.15-8.006-3.806-8.006-8.306a8.318 8.318 0 0 1 8.325-8.325c4.594 0 8.325 3.731 8.325 8.325-.019 4.5-3.563 8.156-8.025 8.306zM30.769 7.5a6.558 6.558 0 0 1 6.562 6.563 6.572 6.572 0 0 1-6.319 6.562 2.123 2.123 0 0 0-.487 0M7.8 27.3c-4.537 3.037-4.537 7.988 0 11.006 5.156 3.45 13.613 3.45 18.769 0 4.537-3.037 4.537-7.987 0-11.006-5.138-3.431-13.594-3.431-18.769 0zM34.388 37.5c1.35-.281 2.624-.825 3.674-1.631 2.925-2.194 2.925-5.813 0-8.006-1.03-.788-2.287-1.313-3.618-1.613" stroke="#292D32" stroke-width="3" stroke-linecap="round" stroke-linejoin="round"/></svg>
